X: 1446
T: the Sailor's Cravat   #2
R: reel
%S: s:2 b:11(5+6)
B: O'Neill's 1850 #1446
O: McFadden
Z: Bob Safranek, rjs@gsp.org
N: Compacted via repeats and multiple endings [JC]
Z: Ornament (~) is a mordant
M: C|
L: 1/8
K: D
|: d2(fe) dcBd | ABFB ADFA | d2(fe) dcBd |\
[1 AFDF (~GE) Ez :|2 AFEG FDD2 |]
|: AddA BAFA | defd (Be) e z | AddA \
[1 BcdB | AFGE (FD)D2 :|\
[2 Bgfe | dBAG FDD2 |]
